X:642
T: Xiangqi wushi laodage
N: C2166
O: China, Hubei Suixian
S: I, 424]
R: Xiaodiao]
M: 2/4
L: 1/16
K: D
F3EDEF2 | E6F2 | A2BdBAF2 | A8
A3Bd2B2 | e2fed2BA | F3AB2d2 | A8
A3Bd2Bd | e2fed2BA | F3ABABd | A8
d2dBABd2 | A2BAF2E2 | A3BF2E2 | D8

